static/assets/head_icons_png/man/bizi/1028749.svg

<svg xmlns="http://www.w3.org/2000/svg" width="5" height="9"><g transform="translate(-67.95 -29.7)"><path d="M72.05 37.05l-.3.1q-.05 0-.15.1l.1-.95q.05-.6.45-.6l.4.25.05.2.05.25-.2.5-.25.35-.15-.2" fill="#fcd1af"/><path d="M72.2 37.25l-.5.35-.45.15.35-.5q.1-.1.15-.1l.3-.1.15.2m-2.8.4l-.25-.1-.45-.25-.1-.3.05-.1h.15l.35.4.25.35" fill="#aa6e46"/><path d="M71.3 31.95l-.05 1.4v2.3l-.25 1.8q-.3.4-.7.45-.35-.05-.55-.5l-.3-.4-.1-.05v-.4l.1-2.05-.05-2.4.05-1.6q.45-.7 1.25-.65.45 0 .7.45l.15.55-.25 1.1" fill="#fedec1"/><radialGradient id="a" gradientUnits="userSpaceOnUse" gradientTransform="matrix(.00995 0 0 .00995 71.45 33.35)" spreadMethod="pad" cx="0" cy="0" r="819.2" fx="0" fy="0"><stop offset="0" stop-color="#f8b991"/><stop offset=".992" stop-color="#f7c4a2"/></radialGradient><path d="M71.25 37.75l-.4.4q-.35.35-.65.3-.35-.15-.55-.45l-.25-.35-.25-.35q0-.2.5 0l-.2-.15V37l.3.4q.2.45.55.5.4-.05.7-.45l.25-1.8v-2.3l.05-1.4.25-1.1q.35-.8.95-1.15h.05q-.8.35-.85 2.5l.1.5.05.6.05.6q0 1.05.2 1.35l.3.55.15.15-.4-.25q-.4 0-.45.6l-.1.95-.35.5" fill="url(#a)"/><radialGradient id="b" gradientUnits="userSpaceOnUse" gradientTransform="matrix(.00578 0 0 .00578 69.2 32.25)" spreadMethod="pad" cx="0" cy="0" r="819.2" fx="0" fy="0"><stop offset="0" stop-color="#fdd7b8"/><stop offset=".973" stop-color="#fdd9ba"/></radialGradient><path d="M68.55 35.6q.25-.25.3-.9l.15-1.5v-1.3q0-.7.4-1.3l.05-.1-.05 1.6.05 2.4-.1 2.05v.25l-.3-.4-.5-.8" fill="url(#b)"/><radialGradient id="c" gradientUnits="userSpaceOnUse" gradientTransform="translate(68.25 36.9) scale(.00122)" spreadMethod="pad" cx="0" cy="0" r="819.2" fx="0" fy="0"><stop offset="0" stop-color="#f8b991"/><stop offset=".973" stop-color="#f8c9a9"/></radialGradient><path d="M69.45 37.15l.2.15q-.5-.2-.5 0l-.35-.4h-.15l-.05.1.1.3q-.8-.2-.75-.8-.05-.65.45-.8l.15-.1.5.8.3.4v.15l.1.05v.15" fill="url(#c)"/><radialGradient id="d" gradientUnits="userSpaceOnUse" gradientTransform="matrix(.00061 0 0 .0026 70.45 32.35)" spreadMethod="pad" cx="0" cy="0" r="819.2" fx="0" fy="0"><stop offset="0" stop-color="#fff" stop-opacity=".714"/><stop offset=".973" stop-color="#fff" stop-opacity="0"/></radialGradient><path d="M70.8 30.55l.1 1.15-.1 1.95q-.15 1.3-.4 1.35-.35-.2-.35-2.75V30.9l.05-.15.1-.3.3-.3.3.4" fill="url(#d)"/><radialGradient id="e" gradientUnits="userSpaceOnUse" gradientTransform="translate(70.45 37.4) scale(.00154)" spreadMethod="pad" cx="0" cy="0" r="819.2" fx="0" fy="0"><stop offset="0" stop-color="#fff" stop-opacity=".663"/><stop offset=".973" stop-color="#fff" stop-opacity="0"/></radialGradient><path d="M69.65 35.6q.2.2.5.2l.55-.05q.35-.05.35.75l-.25.85-.45.3-.6-.35-.4-.75q0-.5.3-.95" fill="url(#e)"/></g></svg>

<?xml version="1.0" encoding="utf-8"?>
<svg version="1.1" id="Layer_1"
xmlns="http://www.w3.org/2000/svg"
xmlns:xlink="http://www.w3.org/1999/xlink"
xmlns:author="http://www.sothink.com"
width="5px" height="9px"
xml:space="preserve">
<g id="480" transform="matrix(1, 0, 0, 1, -67.95, -29.7)">
<path style="fill:#FCD1AF;fill-opacity:1" d="M72.05,37.05L71.75 37.15Q71.7 37.15 71.6 37.25L71.7 36.3Q71.75 35.7 72.15 35.7L72.55 35.95L72.6 36.15L72.65 36.4L72.45 36.9L72.2 37.25L72.05 37.05" />
<path style="fill:#AA6E46;fill-opacity:1" d="M72.2,37.25L71.7 37.6L71.25 37.75L71.6 37.25Q71.7 37.15 71.75 37.15L72.05 37.05L72.2 37.25M69.4,37.65L69.15 37.55L68.7 37.3L68.6 37L68.65 36.9L68.8 36.9L69.15 37.3L69.4 37.65" />
<path style="fill:#FEDEC1;fill-opacity:1" d="M71.3,31.95L71.25 33.35L71.25 35.65L71 37.45Q70.7 37.85 70.3 37.9Q69.95 37.85 69.75 37.4L69.45 37L69.35 36.95L69.35 36.8L69.35 36.55L69.45 34.5L69.4 32.1L69.45 30.5Q69.9 29.8 70.7 29.85Q71.15 29.85 71.4 30.3L71.55 30.85L71.3 31.95" />
<radialGradient
id="RadialGradID_4133" gradientUnits="userSpaceOnUse" gradientTransform="matrix(0.00994873, 0, 0, 0.00994873, 71.45, 33.35)" spreadMethod ="pad" cx="0" cy="0" r="819.2" fx="0" fy="0" >
<stop  offset="0"  style="stop-color:#F8B991;stop-opacity:1" />
<stop  offset="0.992157"  style="stop-color:#F7C4A2;stop-opacity:1" />
</radialGradient>
<path style="fill:url(#RadialGradID_4133) " d="M71.25,37.75L70.85 38.15Q70.5 38.5 70.2 38.45Q69.85 38.3 69.65 38L69.4 37.65L69.15 37.3Q69.15 37.1 69.65 37.3L69.45 37.15L69.45 37L69.75 37.4Q69.95 37.85 70.3 37.9Q70.7 37.85 71 37.45L71.25 35.65L71.25 33.35L71.3 31.95L71.55 30.85Q71.9 30.05 72.5 29.7L72.55 29.7Q71.75 30.05 71.7 32.2L71.8 32.7L71.85 33.3L71.9 33.9Q71.9 34.95 72.1 35.25L72.4 35.8L72.55 35.95L72.15 35.7Q71.75 35.7 71.7 36.3L71.6 37.25L71.25 37.75" />
<radialGradient
id="RadialGradID_4134" gradientUnits="userSpaceOnUse" gradientTransform="matrix(0.00578308, 0, 0, 0.00578308, 69.2, 32.25)" spreadMethod ="pad" cx="0" cy="0" r="819.2" fx="0" fy="0" >
<stop  offset="0"  style="stop-color:#FDD7B8;stop-opacity:1" />
<stop  offset="0.972549"  style="stop-color:#FDD9BA;stop-opacity:1" />
</radialGradient>
<path style="fill:url(#RadialGradID_4134) " d="M68.55,35.6Q68.8 35.35 68.85 34.7L69 33.2L69 31.9Q69 31.2 69.4 30.6L69.45 30.5L69.4 32.1L69.45 34.5L69.35 36.55L69.35 36.8L69.05 36.4L68.55 35.6" />
<radialGradient
id="RadialGradID_4135" gradientUnits="userSpaceOnUse" gradientTransform="matrix(0.0012207, 0, 0, 0.0012207, 68.25, 36.9)" spreadMethod ="pad" cx="0" cy="0" r="819.2" fx="0" fy="0" >
<stop  offset="0"  style="stop-color:#F8B991;stop-opacity:1" />
<stop  offset="0.972549"  style="stop-color:#F8C9A9;stop-opacity:1" />
</radialGradient>
<path style="fill:url(#RadialGradID_4135) " d="M69.45,37.15L69.65 37.3Q69.15 37.1 69.15 37.3L68.8 36.9L68.65 36.9L68.6 37L68.7 37.3Q67.9 37.1 67.95 36.5Q67.9 35.85 68.4 35.7L68.55 35.6L69.05 36.4L69.35 36.8L69.35 36.95L69.45 37L69.45 37.15" />
<radialGradient
id="RadialGradID_4136" gradientUnits="userSpaceOnUse" gradientTransform="matrix(0.000610352, 0, 0, 0.00260925, 70.45, 32.35)" spreadMethod ="pad" cx="0" cy="0" r="819.2" fx="0" fy="0" >
<stop  offset="0"  style="stop-color:#FFFFFF;stop-opacity:0.713725" />
<stop  offset="0.972549"  style="stop-color:#FFFFFF;stop-opacity:0" />
</radialGradient>
<path style="fill:url(#RadialGradID_4136) " d="M70.8,30.55L70.9 31.7L70.8 33.65Q70.65 34.95 70.4 35Q70.05 34.8 70.05 32.25L70.05 31.75L70.05 30.9L70.1 30.75L70.2 30.45L70.5 30.15L70.8 30.55" />
<radialGradient
id="RadialGradID_4137" gradientUnits="userSpaceOnUse" gradientTransform="matrix(0.00154114, 0, 0, 0.00154114, 70.45, 37.4)" spreadMethod ="pad" cx="0" cy="0" r="819.2" fx="0" fy="0" >
<stop  offset="0"  style="stop-color:#FFFFFF;stop-opacity:0.662745" />
<stop  offset="0.972549"  style="stop-color:#FFFFFF;stop-opacity:0" />
</radialGradient>
<path style="fill:url(#RadialGradID_4137) " d="M69.65,35.6Q69.85 35.8 70.15 35.8L70.7 35.75Q71.05 35.7 71.05 36.5L70.8 37.35L70.35 37.65L69.75 37.3L69.35 36.55Q69.35 36.05 69.65 35.6" />
</g>
</svg>
